ix/login_outline.svg

<svg viewBox="0 0 24 24" fill="none" xmlns="http://www.w3.org/2000/svg" height="1em" width="1em">
  <path d="M15.2405 22.27H15.1105C10.6705 22.27 8.5305 20.52 8.1605 16.6C8.1205 16.19 8.4205 15.82 8.8405 15.78C9.2505 15.74 9.6205 16.05 9.6605 16.46C9.9505 19.6 11.4305 20.77 15.1205 20.77H15.2505C19.3205 20.77 20.7605 19.33 20.7605 15.26V8.73998C20.7605 4.66998 19.3205 3.22998 15.2505 3.22998H15.1205C11.4105 3.22998 9.9305 4.41998 9.6605 7.61998C9.6105 8.02998 9.2705 8.33998 8.8405 8.29998C8.4205 8.26998 8.1205 7.89998 8.1505 7.48998C8.4905 3.50998 10.6405 1.72998 15.1105 1.72998H15.2405C20.1505 1.72998 22.2505 3.82998 22.2505 8.73998V15.26C22.2505 20.17 20.1505 22.27 15.2405 22.27Z" fill="#292D32"/>
  <path d="M14.88 12.75H2C1.59 12.75 1.25 12.41 1.25 12C1.25 11.59 1.59 11.25 2 11.25H14.88C15.29 11.25 15.63 11.59 15.63 12C15.63 12.41 15.3 12.75 14.88 12.75Z" fill="#292D32"/>
  <path d="M12.6498 16.1001C12.4598 16.1001 12.2698 16.0301 12.1198 15.8801C11.8298 15.5901 11.8298 15.1101 12.1198 14.8201L14.9398 12.0001L12.1198 9.18009C11.8298 8.89009 11.8298 8.41009 12.1198 8.12009C12.4098 7.83009 12.8898 7.83009 13.1798 8.12009L16.5298 11.4701C16.8198 11.7601 16.8198 12.2401 16.5298 12.5301L13.1798 15.8801C13.0298 16.0301 12.8398 16.1001 12.6498 16.1001Z" fill="#292D32"/>
</svg>

<svg viewBox="0 0 24 24" fill="none" xmlns="http://www.w3.org/2000/svg" height="1em" width="1em">
  <path d="M15.24 22.27h-.13c-4.44 0-6.58-1.75-6.95-5.67-.04-.41.26-.78.68-.82.41-.04.78.27.82.68.29 3.14 1.77 4.31 5.46 4.31h.13c4.07 0 5.51-1.44 5.51-5.51V8.74c0-4.07-1.44-5.51-5.51-5.51h-.13c-3.71 0-5.19 1.19-5.46 4.39-.05.41-.39.72-.82.68a.751.751 0 0 1-.69-.81c.34-3.98 2.49-5.76 6.96-5.76h.13c4.91 0 7.01 2.1 7.01 7.01v6.52c0 4.91-2.1 7.01-7.01 7.01Z" fill="#292D32"/>
  <path d="M14.88 12.75H2c-.41 0-.75-.34-.75-.75s.34-.75.75-.75h12.88a.749.749 0 1 1 0 1.5Z" fill="#292D32"/>
  <path d="M12.65 16.1c-.19 0-.38-.07-.53-.22a.754.754 0 0 1 0-1.06L14.94 12l-2.82-2.82a.754.754 0 0 1 0-1.06c.29-.29.77-.29 1.06 0l3.35 3.35c.29.29.29.77 0 1.06l-3.35 3.35c-.15.15-.34.22-.53.22Z" fill="#292D32"/>
</svg>
